X:688
T:Vals efter Alfred Pettersson Sv L nr 296
R:Vals
N:Finns i SvL i tonarten F (se nedan) men i Blekinge brukar spelas i D 
O:Nättraby, Blekinge
M:3/4
L:1/4
K:D
|: F/2G/2 | A f e | d c B | B A d/2A/2 | F2 A/2B/2 | A G B/2G/2 | E-E/2 F/2G/2A/2 | B A B/2A/2 | F2 
A/2B/2 | A f e | d c B | B A d/2A/2 | F2 A/2d/2 | f2 A/2c/2 | e2 A/2c/2 | d d/2c/2 d/2e/2 | d2 ::
L:1/8
df | ec Ac eg | fd cd fd | ec Ac eg | fd cd fd | A2 fe dc | B2 gf ed | dc eA Bc | d4 :|
(:musicend:)\\

(:music:)
